X:1
T:Title
%%score { ( 1 3 5 ) | ( 2 4 ) }
L:1/8
M:3/4
K:C
V:1 treble nm="Grand Piano"
V:3 treble 
V:5 treble 
V:2 treble 
V:4 treble 
V:1
 z6[Q:1/4=100] | [CE][CE] [CE]2 (3cBc | d2 c2 z2 | z F z A FG |[M:2/4] E4 |[M:1/4] E>F | %6
[M:3/4] EE z c (3cBc | d2 c2 z2 | z F z G (3GAB |[M:2/4] c-[Ec-] [Ec]2 |[M:1/4] B>c | %11
[M:3/4] d4 z2 | [Ge]2 [Gc]2 z2 | B4 ^F2 |[M:2/4] G4 |[M:1/4] E>F |[M:3/4] EE z c (3cBc | d2 c2 z2 | %18
 z F z c (3Bcd |[M:2/4] c-[Fc-] [Ec]2 |] %20
V:2
 z2 z2 E>F | C,C, z[K:treble] c[K:bass] E,2 | [F,A,F][F,A,] [F,A,F][F,A,] z2 | %3
 [G,B,F][G,B,][K:bass] [G,B,]2 [G,B,D]2 |[M:2/4] [C,C][C,G,] [C,G,]2 |[M:1/4] z2 | %6
[M:3/4] [C,C][C,C] [C,C]2 [E,C]2 | [F,A,F][F,A,] [F,A,F][F,A,] z2 | [G,B,F][G,B,] [G,B,]2 [G,F]2 | %9
[M:2/4][K:bass] [C,G,][C,G,] [C,G,]2 |[M:1/4] z2 | %11
[M:3/4][K:treble] [G,B,G][G,B,] [G,B,]2 [G,B,G]2 | [C,C]C, C,C, z2 | %13
 [D,D][D,D] DB, (3z[K:treble] DC |[M:2/4] [G,B,][G,C] [G,D]2 |[M:1/4] z2 | %16
[M:3/4][K:bass] [C,C][C,C] [C,C]2 [E,C]2 | [F,CF][F,C] [F,CF][F,C] z2 | [G,B,F][G,B,] G,2 [G,F]2 | %19
[M:2/4][K:bass] [C,G,][C,A,] [C,G,]2 |] %20
V:3
 x6 | G4 [CG]2 | z F z F B>A | G4 z2 |[M:2/4] z C C2 |[M:1/4] x2 |[M:3/4] G4 G2 | z F z F B>A | %8
 G4 z2 |[M:2/4] .E2 z2 |[M:1/4] x2 |[M:3/4] z G z d (3dcd | z C EE B>c | GG z d (3[B,c]BA | %14
[M:2/4] z E F2 |[M:1/4] x2 |[M:3/4] G4 G2 | z F z F B>A | G4 z2 |[M:2/4] .E2 z2 |] %20
V:4
 x6 | z2 C,2[K:treble][K:bass] z2 | x6 | x2[K:bass] x4 |[M:2/4] x4 |[M:1/4] x2 |[M:3/4] x6 | x6 | %8
 x6 |[M:2/4][K:bass] x4 |[M:1/4] x2 |[M:3/4][K:treble] x6 | x6 | z2 D,2 D,2[K:treble] |[M:2/4] x4 | %15
[M:1/4] x2 |[M:3/4][K:bass] x6 | x6 | x6 |[M:2/4][K:bass] x4 |] %20
V:5
 x6 | x6 | x6 | z2 F2 z2 |[M:2/4] x4 |[M:1/4] x2 |[M:3/4] z2 E2 z2 | x6 | z2 F2 z2 |[M:2/4] x4 | %10
[M:1/4] x2 |[M:3/4] z2 G2 z2 | x6 | z2 G2 z2 |[M:2/4] x4 |[M:1/4] x2 |[M:3/4] z2 E2 z2 | x6 | %18
 z2 E2 z2 |[M:2/4] x4 |] %20

